modules/hawcons-stroke/icons/icon-65-file-gif.svg

<?xml version="1.0" encoding="UTF-8" standalone="no"?>
<svg width="32px" height="32px" viewBox="0 0 32 32" version="1.1" xmlns="http://www.w3.org/2000/svg" xmlns:xlink="http://www.w3.org/1999/xlink" xmlns:sketch="http://www.bohemiancoding.com/sketch/ns">
    <!-- Generator: Sketch 3.0.3 (7891) - http://www.bohemiancoding.com/sketch -->
    <title>icon 65 file gif</title>
    <desc>Created with Sketch.</desc>
    <defs></defs>
    <g id="Page-1" stroke="none" stroke-width="1" fill="none" fill-rule="evenodd" sketch:type="MSPage">
        <g id="icon-65-file-gif" sketch:type="MSArtboardGroup" fill="#929292">
            <path d="M8.00684834,10 C6.34621185,10 5,11.3422643 5,12.9987856 L5,20.0012144 C5,21.6573979 6.33599155,23 8.00684834,23 L24.9931517,23 C26.6537881,23 28,21.6577357 28,20.0012144 L28,12.9987856 C28,11.3426021 26.6640085,10 24.9931517,10 L8.00684834,10 L8.00684834,10 Z M7.99456145,11 C6.89299558,11 6,11.9001762 6,12.992017 L6,20.007983 C6,21.1081436 6.90234375,22 7.99456145,22 L25.0054385,22 C26.1070044,22 27,21.0998238 27,20.007983 L27,12.992017 C27,11.8918564 26.0976562,11 25.0054385,11 L7.99456145,11 L7.99456145,11 Z M13,17 L13,19 L10.9998075,19 C10.4437166,19 10,18.5523709 10,18.0001925 L10,14.9998075 C10,14.4437166 10.4476291,14 10.9998075,14 L14,14 L14,13 L11.0048815,13 C9.89761602,13 9,13.8865548 9,15.0059191 L9,17.9940809 C9,19.1019194 9.8938998,20 11.0048815,20 L14,20 L14,19.25 L14,19.25 L14,17 L14,16 L11,16 L11,17 L13,17 L13,17 Z M16,14 L16,19 L15,19 L15,20 L18,20 L18,19 L17,19 L17,14 L18,14 L18,13 L15,13 L15,14 L16,14 L16,14 Z M20,16 L20,14 L24,14 L24,13 L19,13 L19,20 L20,20 L20,17 L23,17 L23,16 L20,16 L20,16 Z" id="file-gif" sketch:type="MSShapeGroup"></path>
        </g>
    </g>
</svg>

<svg width="32" height="32" viewBox="0 0 32 32" xmlns="http://www.w3.org/2000/svg"><path d="M8.007 10A3.003 3.003 0 0 0 5 12.999V20A2.996 2.996 0 0 0 8.007 23h16.986A3.003 3.003 0 0 0 28 20.001V13A2.996 2.996 0 0 0 24.993 10H8.007zm-.012 1C6.893 11 6 11.9 6 12.992v7.016A2 2 0 0 0 7.995 22h17.01C26.107 22 27 21.1 27 20.008v-7.016A2 2 0 0 0 25.005 11H7.995zM13 17v2h-2c-.556 0-1-.448-1-1v-3c0-.556.448-1 1-1h3v-1h-2.995A1.998 1.998 0 0 0 9 15.006v2.988C9 19.102 9.894 20 11.005 20H14v-4h-3v1h2zm3-3v5h-1v1h3v-1h-1v-5h1v-1h-3v1h1zm4 2v-2h4v-1h-5v7h1v-3h3v-1h-3z" fill="#929292" fill-rule="evenodd"/></svg>
